X:58
M:4/4
L:1/16
Q:1/4=105
K:Dmin
d2dA e2eA f2Af e2eA | d2AG F2d2 E2^c2 d2D2 |
a2ga b2gb a2gf e2c2 | f2fA B2g2 cfeg f2F2 |
fedc Bdef gfed ^cB^cA | dBAG FAdF Ddce d2D2 |
fedc Bdef gfed ^cB^cA | d2AG F2d2 E2c2 d2D2 ||
L:1/8
db2a gE2D | Ca2g fD2C | B,g2f eC2B, | Af2e dC2A, |
L:1/16
fefc d2B,2 gfgd e2C2 | fefc d2g2 cfeg f2F2 |
fedc Bdef gfed ^cB^cA | dBAG FABG Ddce d2D2 |
fed^c Bdef gfed ^cB^cA | d2AG F2d2 E2^c2 d2D2 |]

